places/22/folder.svg

<?xml version="1.0" encoding="UTF-8" standalone="no"?>
<!-- Created with Inkscape (http://www.inkscape.org/) -->

<svg
   xmlns:svg="http://www.w3.org/2000/svg"
   xmlns="http://www.w3.org/2000/svg"
   xmlns:xlink="http://www.w3.org/1999/xlink"
   version="1.0"
   width="22"
   height="22"
   id="svg2">
  <defs
     id="defs4">
    <linearGradient
       id="linearGradient5060">
      <stop
         id="stop5062"
         style="stop-color:black;stop-opacity:1"
         offset="0" />
      <stop
         id="stop5064"
         style="stop-color:black;stop-opacity:0"
         offset="1" />
    </linearGradient>
    <linearGradient
       id="linearGradient5048">
      <stop
         id="stop5050"
         style="stop-color:black;stop-opacity:0"
         offset="0" />
      <stop
         id="stop5056"
         style="stop-color:black;stop-opacity:1"
         offset="0.5" />
      <stop
         id="stop5052"
         style="stop-color:black;stop-opacity:0"
         offset="1" />
    </linearGradient>
    <linearGradient
       id="linearGradient5157">
      <stop
         id="stop5159"
         style="stop-color:#c1c1c1;stop-opacity:1"
         offset="0" />
      <stop
         id="stop5161"
         style="stop-color:#909090;stop-opacity:1"
         offset="1" />
    </linearGradient>
    <linearGradient
       id="linearGradient11111">
      <stop
         id="stop11113"
         style="stop-color:white;stop-opacity:1"
         offset="0" />
      <stop
         id="stop11115"
         style="stop-color:#cdcdcd;stop-opacity:1"
         offset="0.91013825" />
      <stop
         id="stop11117"
         style="stop-color:#a1a1a1;stop-opacity:1"
         offset="1" />
    </linearGradient>
    <linearGradient
       id="linearGradient3390">
      <stop
         id="stop3392"
         style="stop-color:#425e7b;stop-opacity:1"
         offset="0" />
      <stop
         id="stop3394"
         style="stop-color:#7a91a7;stop-opacity:1"
         offset="1" />
    </linearGradient>
    <linearGradient
       id="linearGradient7012-661-145-733-759-865-745">
      <stop
         id="stop2699"
         style="stop-color:#9cbbd9;stop-opacity:1"
         offset="0" />
      <stop
         id="stop2701"
         style="stop-color:#5c82ab;stop-opacity:1"
         offset="1" />
    </linearGradient>
    <linearGradient
       id="linearGradient3752">
      <stop
         id="stop3754"
         style="stop-color:white;stop-opacity:1"
         offset="0" />
      <stop
         id="stop3760"
         style="stop-color:white;stop-opacity:1"
         offset="0.84754151" />
      <stop
         id="stop3756"
         style="stop-color:white;stop-opacity:0"
         offset="1" />
    </linearGradient>
    <linearGradient
       id="linearGradient8265-821-176-38-919-66-249">
      <stop
         id="stop2687"
         style="stop-color:white;stop-opacity:1"
         offset="0" />
      <stop
         id="stop2689"
         style="stop-color:white;stop-opacity:0"
         offset="1" />
    </linearGradient>
    <linearGradient
       x1="302.85715"
       y1="366.64789"
       x2="302.85715"
       y2="609.50507"
       id="linearGradient3510"
       xlink:href="#linearGradient5048"
       gradientUnits="userSpaceOnUse"
       gradientTransform="matrix(2.774389,0,0,1.969706,-1892.179,-872.8854)" />
    <radialGradient
       cx="605.71429"
       cy="486.64789"
       r="117.14286"
       fx="605.71429"
       fy="486.64789"
       id="radialGradient3512"
       xlink:href="#linearGradient5060"
       gradientUnits="userSpaceOnUse"
       gradientTransform="matrix(2.774389,0,0,1.969706,-1891.633,-872.8854)" />
    <radialGradient
       cx="605.71429"
       cy="486.64789"
       r="117.14286"
       fx="605.71429"
       fy="486.64789"
       id="radialGradient3514"
       xlink:href="#linearGradient5060"
       gradientUnits="userSpaceOnUse"
       gradientTransform="matrix(-2.774389,0,0,1.969706,112.7623,-872.8854)" />
    <linearGradient
       x1="-28.531403"
       y1="17.955765"
       x2="-28.531403"
       y2="37.502914"
       id="linearGradient3516"
       xlink:href="#linearGradient11111"
       gradientUnits="userSpaceOnUse"
       gradientTransform="matrix(0.9101563,0,0,0.8985549,11.885849,-34.99423)" />
    <linearGradient
       x1="9.8763561"
       y1="2.6014566"
       x2="9.8763561"
       y2="23.061668"
       id="linearGradient3518"
       xlink:href="#linearGradient5157"
       gradientUnits="userSpaceOnUse"
       gradientTransform="matrix(0.9101563,0,0,0.8985549,-19.403508,-21.963997)" />
    <radialGradient
       cx="8.2334681"
       cy="8.4777107"
       r="9.9991302"
       fx="8.2334681"
       fy="8.4777107"
       id="radialGradient3520"
       xlink:href="#linearGradient7012-661-145-733-759-865-745"
       gradientUnits="userSpaceOnUse"
       gradientTransform="matrix(1.2637216,1.6454755e-8,-1.1140231e-8,0.8555673,-21.653225,-19.713096)" />
    <linearGradient
       x1="15.669036"
       y1="16.979422"
       x2="3.0768602"
       y2="4.2520242"
       id="linearGradient3522"
       xlink:href="#linearGradient3390"
       gradientUnits="userSpaceOnUse"
       gradientTransform="matrix(0.9052018,0,0,0.8680849,-19.712254,-19.883974)" />
    <radialGradient
       cx="4.02005"
       cy="5.5926585"
       r="10.273108"
       fx="4.02005"
       fy="5.5926585"
       id="radialGradient3524"
       xlink:href="#linearGradient3752"
       gradientUnits="userSpaceOnUse"
       gradientTransform="matrix(-0.01529236,1.2169565,-1.6351743,-0.01889719,-6.5229407,-19.500936)" />
    <linearGradient
       x1="18.03083"
       y1="16.407909"
       x2="20.054544"
       y2="24.627615"
       id="linearGradient3526"
       xlink:href="#linearGradient8265-821-176-38-919-66-249"
       gradientUnits="userSpaceOnUse" />
  </defs>
  <g
     id="layer1">
    <g
       transform="translate(19.481928,22.192735)"
       id="g3499">
      <g
         transform="matrix(0.4968783,0,0,0.4693778,-20.315517,-22.51333)"
         id="g3430"
         style="stroke-width:1.88256383;stroke-miterlimit:4;stroke-dasharray:none">
        <g
           transform="matrix(0.02165152,0,0,0.01485743,43.0076,42.68539)"
           id="g3432"
           style="stroke-width:104.96237946;stroke-miterlimit:4;stroke-dasharray:none;display:inline">
          <rect
             width="1339.6335"
             height="478.35718"
             x="-1559.2523"
             y="-150.69685"
             id="rect3434"
             style="opacity:0.40206185;fill:url(#linearGradient3510);fill-opacity:1;fill-rule:nonzero;stroke:none;stroke-width:104.96237946;marker:none;visibility:visible;display:inline;overflow:visible" />
          <path
             d="m -219.61876,-150.68038 c 0,0 0,478.33079 0,478.33079 142.874166,0.90045 345.40022,-107.16966 345.40014,-239.196175 0,-132.026537 -159.436816,-239.134595 -345.40014,-239.134615 z"
             id="path3436"
             style="opacity:0.40206185;fill:url(#radialGradient3512);fill-opacity:1;fill-rule:nonzero;stroke:none;stroke-width:104.96237946;marker:none;visibility:visible;display:inline;overflow:visible" />
          <path
             d="m -1559.2523,-150.68038 c 0,0 0,478.33079 0,478.33079 -142.8742,0.90045 -345.4002,-107.16966 -345.4002,-239.196175 0,-132.026537 159.4368,-239.134595 345.4002,-239.134615 z"
             id="path3438"
             style="opacity:0.40206185;fill:url(#radialGradient3514);fill-opacity:1;fill-rule:nonzero;stroke:none;stroke-width:104.96237946;marker:none;visibility:visible;display:inline;overflow:visible" />
        </g>
      </g>
      <path
         d="m -16.839971,-19.687235 c -0.07785,0 -0.144596,0.08334 -0.144596,0.169416 l 0,1.8465 -1.7894,0 c -0.09715,0 -0.173514,0.08524 -0.173514,0.169416 0.0063,4.797385 -0.02399,9.5946956 -0.02892,14.3920686 0.02647,0.804239 0.488973,1.352453 0.809734,1.355328 0.921748,0.00826 0.490822,-0.00362 0.954331,0 5.889014,-0.014465 12.3589369,-0.070242 18.2479498,-0.084707 0.049343,0.00622 -1.3440419,-0.096797 -1.3302789,-1.298857 1e-6,-4.1989 -0.456941,-9.8260986 -0.456941,-14.0250006 0,-0.167921 -0.014053,-0.261378 -0.02892,-0.338832 -0.01148,-0.05981 -0.026117,-0.08884 -0.057837,-0.112944 -0.025359,-0.02197 -0.049648,-0.05126 -0.086757,-0.05647 l -8.9515436,0 0,-1.8465 c 0,-0.08608 -0.066742,-0.169416 -0.1445953,-0.169416 l -6.818713,0 z"
         id="path3440"
         style="fill:url(#linearGradient3516);fill-opacity:1;stroke:url(#linearGradient3518);stroke-width:1.01114571;stroke-linecap:round;stroke-linejoin:round;stroke-miterlimit:4;stroke-opacity:1;stroke-dasharray:none;display:inline" />
      <path
         d="m -15.954876,-15.668819 c 9.6200823,0 11.5958189,4.02e-4 17.9331738,-0.02404 0,1.370714 0.234958,14.0002686 -0.440609,14.0002686 -0.649883,0 -12.1807578,-0.082351 -18.5181108,-0.057913 1.339437,0 1.025546,-0.543547 1.025546,-13.9183196 z"
         id="path3442"
         style="fill:url(#radialGradient3520);fill-opacity:1;stroke:url(#linearGradient3522);stroke-width:1.00000012;stroke-linecap:round;stroke-linejoin:round;stroke-miterlimit:4;stroke-opacity:1;stroke-dasharray:none;display:inline" />
      <path
         d="m 1.4740268,-14.742132 c 0,0 -15.0179128,0.23239 -16.4422758,0.07006 -0.07549,12.0706046 -0.116891,12.3013116 -0.116891,12.3013116"
         id="path3444"
         style="opacity:0.4;fill:none;stroke:url(#radialGradient3524);stroke-width:0.98119509;stroke-linecap:butt;stroke-linejoin:miter;stroke-miterlimit:4;stroke-opacity:1;stroke-dasharray:none;display:inline" />
      <path
         d="m 3.21875,5.34375 c -1.5389481,0 -2.8125,1.273552 -2.8125,2.8125 l 0,16 c 0.005894,0.286233 0.14841957,0.612577 0.375,0.8125 0.2265775,0.199921 0.5161946,0.284272 0.84375,0.25 a 0.61209076,0.61209076 0 0 0 0.03125,0 l 45,-7.125 c 0.521773,-0.08229 0.930206,-0.53433 0.9375,-1.0625 l 0,-8.875 c 0,-1.538948 -1.273552,-2.8125 -2.8125,-2.8125 l -41.5625,0 z"
         transform="matrix(0.402649,0,0,0.3520695,-16.645459,-18.074107)"
         id="path3446"
         style="opacity:0.2;fill:url(#linearGradient3526);fill-opacity:1;fill-rule:evenodd;stroke:none" />
    </g>
  </g>
</svg>

<?xml version="1.0" encoding="UTF-8" standalone="no"?>
<!-- Created with Inkscape (http://www.inkscape.org/) -->
<svg
   xmlns:dc="http://purl.org/dc/elements/1.1/"
   xmlns:cc="http://creativecommons.org/ns#"
   xmlns:rdf="http://www.w3.org/1999/02/22-rdf-syntax-ns#"
   xmlns:svg="http://www.w3.org/2000/svg"
   xmlns="http://www.w3.org/2000/svg"
   xmlns:xlink="http://www.w3.org/1999/xlink"
   xmlns:sodipodi="http://sodipodi.sourceforge.net/DTD/sodipodi-0.dtd"
   xmlns:inkscape="http://www.inkscape.org/namespaces/inkscape"
   width="22"
   height="22"
   id="svg2"
   sodipodi:version="0.32"
   inkscape:version="0.46"
   version="1.0"
   sodipodi:docname="folder.svg"
   inkscape:output_extension="org.inkscape.output.svg.inkscape">
  <defs
     id="defs4">
    <linearGradient
       id="linearGradient5060"
       inkscape:collect="always">
      <stop
         id="stop5062"
         offset="0"
         style="stop-color:black;stop-opacity:1;" />
      <stop
         id="stop5064"
         offset="1"
         style="stop-color:black;stop-opacity:0;" />
    </linearGradient>
    <linearGradient
       id="linearGradient5048">
      <stop
         id="stop5050"
         offset="0"
         style="stop-color:black;stop-opacity:0;" />
      <stop
         style="stop-color:black;stop-opacity:1;"
         offset="0.5"
         id="stop5056" />
      <stop
         id="stop5052"
         offset="1"
         style="stop-color:black;stop-opacity:0;" />
    </linearGradient>
    <linearGradient
       id="linearGradient5157">
      <stop
         style="stop-color:#c1c1c1;stop-opacity:1;"
         offset="0"
         id="stop5159" />
      <stop
         style="stop-color:#909090;stop-opacity:1;"
         offset="1"
         id="stop5161" />
    </linearGradient>
    <linearGradient
       id="linearGradient11111">
      <stop
         style="stop-color:#ffffff;stop-opacity:1;"
         offset="0"
         id="stop11113" />
      <stop
         id="stop11115"
         offset="0.91013825"
         style="stop-color:#cdcdcd;stop-opacity:1" />
      <stop
         style="stop-color:#a1a1a1;stop-opacity:1;"
         offset="1"
         id="stop11117" />
    </linearGradient>
    <linearGradient
       id="linearGradient3390"
       inkscape:collect="always">
      <stop
         id="stop3392"
         offset="0"
         style="stop-color:#425e7b;stop-opacity:1" />
      <stop
         id="stop3394"
         offset="1"
         style="stop-color:#7a91a7;stop-opacity:1" />
    </linearGradient>
    <linearGradient
       id="linearGradient7012-661-145-733-759-865-745">
      <stop
         style="stop-color:#9cbbd9;stop-opacity:1;"
         offset="0"
         id="stop2699" />
      <stop
         style="stop-color:#5c82ab;stop-opacity:1;"
         offset="1"
         id="stop2701" />
    </linearGradient>
    <linearGradient
       id="linearGradient3752">
      <stop
         id="stop3754"
         offset="0"
         style="stop-color:#ffffff;stop-opacity:1;" />
      <stop
         style="stop-color:#ffffff;stop-opacity:1;"
         offset="0.84754151"
         id="stop3760" />
      <stop
         id="stop3756"
         offset="1"
         style="stop-color:#ffffff;stop-opacity:0;" />
    </linearGradient>
    <linearGradient
       inkscape:collect="always"
       id="linearGradient8265-821-176-38-919-66-249">
      <stop
         style="stop-color:#ffffff;stop-opacity:1;"
         offset="0"
         id="stop2687" />
      <stop
         style="stop-color:#ffffff;stop-opacity:0;"
         offset="1"
         id="stop2689" />
    </linearGradient>
    <linearGradient
       inkscape:collect="always"
       xlink:href="#linearGradient5048"
       id="linearGradient3510"
       gradientUnits="userSpaceOnUse"
       gradientTransform="matrix(2.774389,0,0,1.969706,-1892.179,-872.8854)"
       x1="302.85715"
       y1="366.64789"
       x2="302.85715"
       y2="609.50507" />
    <radialGradient
       inkscape:collect="always"
       xlink:href="#linearGradient5060"
       id="radialGradient3512"
       gradientUnits="userSpaceOnUse"
       gradientTransform="matrix(2.774389,0,0,1.969706,-1891.633,-872.8854)"
       cx="605.71429"
       cy="486.64789"
       fx="605.71429"
       fy="486.64789"
       r="117.14286" />
    <radialGradient
       inkscape:collect="always"
       xlink:href="#linearGradient5060"
       id="radialGradient3514"
       gradientUnits="userSpaceOnUse"
       gradientTransform="matrix(-2.774389,0,0,1.969706,112.7623,-872.8854)"
       cx="605.71429"
       cy="486.64789"
       fx="605.71429"
       fy="486.64789"
       r="117.14286" />
    <linearGradient
       inkscape:collect="always"
       xlink:href="#linearGradient11111"
       id="linearGradient3516"
       gradientUnits="userSpaceOnUse"
       gradientTransform="matrix(0.9101563,0,0,0.8985549,11.885849,-34.99423)"
       x1="-28.531403"
       y1="17.955765"
       x2="-28.531403"
       y2="37.502914" />
    <linearGradient
       inkscape:collect="always"
       xlink:href="#linearGradient5157"
       id="linearGradient3518"
       gradientUnits="userSpaceOnUse"
       gradientTransform="matrix(0.9101563,0,0,0.8985549,-19.403508,-21.963997)"
       x1="9.8763561"
       y1="2.6014566"
       x2="9.8763561"
       y2="23.061668" />
    <radialGradient
       inkscape:collect="always"
       xlink:href="#linearGradient7012-661-145-733-759-865-745"
       id="radialGradient3520"
       gradientUnits="userSpaceOnUse"
       gradientTransform="matrix(1.2637216,1.6454755e-8,-1.1140231e-8,0.8555673,-21.653225,-19.713096)"
       cx="8.2334681"
       cy="8.4777107"
       fx="8.2334681"
       fy="8.4777107"
       r="9.9991302" />
    <linearGradient
       inkscape:collect="always"
       xlink:href="#linearGradient3390"
       id="linearGradient3522"
       gradientUnits="userSpaceOnUse"
       gradientTransform="matrix(0.9052018,0,0,0.8680849,-19.712254,-19.883974)"
       x1="15.669036"
       y1="16.979422"
       x2="3.0768602"
       y2="4.2520242" />
    <radialGradient
       inkscape:collect="always"
       xlink:href="#linearGradient3752"
       id="radialGradient3524"
       gradientUnits="userSpaceOnUse"
       gradientTransform="matrix(-1.5292361e-2,1.2169565,-1.6351743,-1.8897185e-2,-6.5229407,-19.500936)"
       cx="4.02005"
       cy="5.5926585"
       fx="4.02005"
       fy="5.5926585"
       r="10.273108" />
    <linearGradient
       inkscape:collect="always"
       xlink:href="#linearGradient8265-821-176-38-919-66-249"
       id="linearGradient3526"
       gradientUnits="userSpaceOnUse"
       x1="18.03083"
       y1="16.407909"
       x2="20.054544"
       y2="24.627615" />
  </defs>
  <sodipodi:namedview
     id="base"
     pagecolor="#ffffff"
     bordercolor="#666666"
     borderopacity="1.0"
     gridtolerance="10000"
     guidetolerance="10"
     objecttolerance="10"
     inkscape:pageopacity="0.0"
     inkscape:pageshadow="2"
     inkscape:zoom="10.375"
     inkscape:cx="12"
     inkscape:cy="12"
     inkscape:document-units="px"
     inkscape:current-layer="layer1"
     showgrid="false"
     inkscape:window-width="640"
     inkscape:window-height="720"
     inkscape:window-x="798"
     inkscape:window-y="24" />
  <metadata
     id="metadata7">
    <rdf:RDF>
      <cc:Work
         rdf:about="">
        <dc:format>image/svg+xml</dc:format>
        <dc:type
           rdf:resource="http://purl.org/dc/dcmitype/StillImage" />
      </cc:Work>
    </rdf:RDF>
  </metadata>
  <g
     inkscape:label="Layer 1"
     inkscape:groupmode="layer"
     id="layer1">
    <g
       id="g3499"
       transform="translate(19.481928,22.192735)">
      <g
         transform="matrix(0.4968783,0,0,0.4693778,-20.315517,-22.51333)"
         id="g3430"
         inkscape:label="Shadow"
         style="stroke-width:1.88256383;stroke-miterlimit:4;stroke-dasharray:none">
        <g
           transform="matrix(2.165152e-2,0,0,1.485743e-2,43.0076,42.68539)"
           id="g3432"
           style="stroke-width:104.96237946;stroke-miterlimit:4;stroke-dasharray:none;display:inline">
          <rect
             style="opacity:0.40206185;fill:url(#linearGradient3510);fill-opacity:1;fill-rule:nonzero;stroke:none;stroke-width:104.96237946;stroke-linecap:round;stroke-linejoin:miter;marker:none;marker-start:none;marker-mid:none;marker-end:none;stroke-miterlimit:4;stroke-dasharray:none;stroke-dashoffset:0;stroke-opacity:1;visibility:visible;display:inline;overflow:visible"
             id="rect3434"
             width="1339.6335"
             height="478.35718"
             x="-1559.2523"
             y="-150.69685" />
          <path
             style="opacity:0.40206185;fill:url(#radialGradient3512);fill-opacity:1;fill-rule:nonzero;stroke:none;stroke-width:104.96237946;stroke-linecap:round;stroke-linejoin:miter;marker:none;marker-start:none;marker-mid:none;marker-end:none;stroke-miterlimit:4;stroke-dasharray:none;stroke-dashoffset:0;stroke-opacity:1;visibility:visible;display:inline;overflow:visible"
             d="M -219.61876,-150.68038 C -219.61876,-150.68038 -219.61876,327.65041 -219.61876,327.65041 C -76.744594,328.55086 125.78146,220.48075 125.78138,88.454235 C 125.78138,-43.572302 -33.655436,-150.68036 -219.61876,-150.68038 z"
             id="path3436"
             sodipodi:nodetypes="cccc" />
          <path
             sodipodi:nodetypes="cccc"
             id="path3438"
             d="M -1559.2523,-150.68038 C -1559.2523,-150.68038 -1559.2523,327.65041 -1559.2523,327.65041 C -1702.1265,328.55086 -1904.6525,220.48075 -1904.6525,88.454235 C -1904.6525,-43.572302 -1745.2157,-150.68036 -1559.2523,-150.68038 z"
             style="opacity:0.40206185;fill:url(#radialGradient3514);fill-opacity:1;fill-rule:nonzero;stroke:none;stroke-width:104.96237946;stroke-linecap:round;stroke-linejoin:miter;marker:none;marker-start:none;marker-mid:none;marker-end:none;stroke-miterlimit:4;stroke-dasharray:none;stroke-dashoffset:0;stroke-opacity:1;visibility:visible;display:inline;overflow:visible" />
        </g>
      </g>
      <path
         id="path3440"
         d="M -16.839971,-19.687235 C -16.917825,-19.687235 -16.984567,-19.603897 -16.984567,-19.517819 L -16.984567,-17.671319 L -18.773967,-17.671319 C -18.871121,-17.671319 -18.947481,-17.586081 -18.947481,-17.501903 C -18.941226,-12.704518 -18.97147,-7.9072074 -18.9764,-3.1098344 C -18.949929,-2.3055954 -18.487427,-1.7573814 -18.166666,-1.7545064 C -17.244918,-1.7462434 -17.675844,-1.7581264 -17.212335,-1.7545064 C -11.323321,-1.7689714 -4.8533981,-1.8247484 1.0356148,-1.8392134 C 1.0849578,-1.8329974 -0.3084271,-1.9360104 -0.2946641,-3.1380704 C -0.2946631,-7.3369704 -0.7516051,-12.964169 -0.7516051,-17.163071 C -0.7516051,-17.330992 -0.7656581,-17.424449 -0.7805251,-17.501903 C -0.7920051,-17.561714 -0.8066421,-17.590743 -0.8383621,-17.614847 C -0.8637211,-17.636817 -0.8880101,-17.666103 -0.9251191,-17.671319 L -9.8766627,-17.671319 L -9.8766627,-19.517819 C -9.8766627,-19.603897 -9.9434047,-19.687235 -10.021258,-19.687235 L -16.839971,-19.687235 z"
         style="fill:url(#linearGradient3516);fill-opacity:1;stroke:url(#linearGradient3518);stroke-width:1.01114571;stroke-linecap:round;stroke-linejoin:round;stroke-miterlimit:4;stroke-dasharray:none;stroke-opacity:1;display:inline"
         sodipodi:nodetypes="ccccccscccsssccccc" />
      <path
         sodipodi:nodetypes="cczcc"
         id="path3442"
         d="M -15.954876,-15.668819 C -6.3347937,-15.668819 -4.3590571,-15.668417 1.9782978,-15.692855 C 1.9782978,-14.322141 2.2132558,-1.6925864 1.5376888,-1.6925864 C 0.8878058,-1.6925864 -10.643069,-1.7749374 -16.980422,-1.7504994 C -15.640985,-1.7504994 -15.954876,-2.2940464 -15.954876,-15.668819 z"
         style="fill:url(#radialGradient3520);fill-opacity:1;stroke:url(#linearGradient3522);stroke-width:1.00000012;stroke-linecap:round;stroke-linejoin:round;stroke-miterlimit:4;stroke-dasharray:none;stroke-opacity:1;display:inline"
         inkscape:transform-center-x="-10.964032"
         inkscape:transform-center-y="-7.8634592" />
      <path
         style="opacity:0.4;fill:none;fill-rule:evenodd;stroke:url(#radialGradient3524);stroke-width:0.98119509;stroke-linecap:butt;stroke-linejoin:miter;stroke-miterlimit:4;stroke-dasharray:none;stroke-opacity:1;display:inline"
         d="M 1.4740268,-14.742132 C 1.4740268,-14.742132 -13.543886,-14.509742 -14.968249,-14.672069 C -15.043735,-2.6014644 -15.08514,-2.3707574 -15.08514,-2.3707574"
         id="path3444"
         sodipodi:nodetypes="ccs" />
      <path
         transform="matrix(0.402649,0,0,0.3520695,-16.645459,-18.074107)"
         d="M 3.21875,5.34375 C 1.6798019,5.34375 0.40625,6.617302 0.40625,8.15625 L 0.40625,24.15625 C 0.41214423,24.442483 0.55466957,24.768827 0.78125,24.96875 C 1.0078275,25.168671 1.2974446,25.253022 1.625,25.21875 C 1.635415,25.219016 1.645835,25.219016 1.65625,25.21875 L 46.65625,18.09375 C 47.178023,18.01146 47.586456,17.55942 47.59375,17.03125 L 47.59375,8.15625 C 47.59375,6.617302 46.320198,5.34375 44.78125,5.34375 L 3.21875,5.34375 z"
         id="path3446"
         style="opacity:0.2;fill:url(#linearGradient3526);fill-opacity:1;fill-rule:evenodd;stroke:none;stroke-width:1.00213289;stroke-linecap:round;stroke-linejoin:round;stroke-miterlimit:4;stroke-dasharray:none;stroke-dashoffset:0;stroke-opacity:1"
         inkscape:original="M 3.21875 5.96875 C 2.010473 5.96875 1.03125 6.9479731 1.03125 8.15625 L 1.03125 24.15625 C 1.0340218 24.290853 1.086548 24.410925 1.1875 24.5 C 1.288452 24.589075 1.4285991 24.63901 1.5625 24.625 L 46.5625 17.5 C 46.793979 17.463493 46.965514 17.265567 46.96875 17.03125 L 46.96875 8.15625 C 46.96875 6.9479731 45.989527 5.96875 44.78125 5.96875 L 3.21875 5.96875 z "
         inkscape:radius="0.61202955"
         sodipodi:type="inkscape:offset" />
    </g>
  </g>
</svg>
